Komodo/actions/scalable/application-exit.svg

<?xml version="1.0" encoding="UTF-8" standalone="no"?>
<!-- Created with Inkscape (http://www.inkscape.org/) -->

<svg
   xmlns:dc="http://purl.org/dc/elements/1.1/"
   xmlns:cc="http://creativecommons.org/ns#"
   xmlns:rdf="http://www.w3.org/1999/02/22-rdf-syntax-ns#"
   xmlns:svg="http://www.w3.org/2000/svg"
   xmlns="http://www.w3.org/2000/svg"
   xmlns:xlink="http://www.w3.org/1999/xlink"
   xmlns:sodipodi="http://sodipodi.sourceforge.net/DTD/sodipodi-0.dtd"
   xmlns:inkscape="http://www.inkscape.org/namespaces/inkscape"
   width="96"
   height="96"
   id="svg11037"
   version="1.1"
   inkscape:version="0.48.3.1 r9886"
   sodipodi:docname="templat.svg">
  <defs
     id="defs11039">
    <linearGradient
       y2="1046.1001"
       x2="47.999954"
       y1="962.62189"
       x1="47.999954"
       gradientTransform="matrix(1.15,0,0,1.15,-7.1999462,-150.65291)"
       gradientUnits="userSpaceOnUse"
       id="linearGradient3886"
       xlink:href="#linearGradient3795"
       inkscape:collect="always" />
    <linearGradient
       id="linearGradient3795">
      <stop
         style="stop-color:#13a6fd;stop-opacity:1;"
         offset="0"
         id="stop3797" />
      <stop
         style="stop-color:#2975b6;stop-opacity:1;"
         offset="1"
         id="stop3799" />
    </linearGradient>
    <linearGradient
       y2="1046.1001"
       x2="47.999954"
       y1="962.62189"
       x1="47.999954"
       gradientTransform="matrix(1.15,0,0,1.15,-7.1999462,-150.65292)"
       gradientUnits="userSpaceOnUse"
       id="linearGradient11642"
       xlink:href="#linearGradient3257"
       inkscape:collect="always" />
    <clipPath
       clipPathUnits="userSpaceOnUse"
       id="clipPath3009">
      <path
         id="path3011"
         d="m -2,956.36218 -96,0 0,33.5624 96,25.68742 0,-59.24982 z"
         style="opacity:0.15;fill:#ffffff;fill-opacity:1;stroke:none"
         inkscape:connector-curvature="0" />
    </clipPath>
    <linearGradient
       x1="48"
       y1="90"
       x2="48"
       y2="5.9877172"
       id="linearGradient3617"
       xlink:href="#linearGradient3257"
       gradientUnits="userSpaceOnUse"
       gradientTransform="translate(1.220339,-16.677966)" />
    <linearGradient
       id="linearGradient3257">
      <stop
         id="stop3259"
         style="stop-color:#a50000;stop-opacity:1"
         offset="0" />
      <stop
         id="stop3261"
         style="stop-color:#e73800;stop-opacity:1"
         offset="1" />
    </linearGradient>
    <linearGradient
       y2="5.9877172"
       x2="48"
       y1="90"
       x1="48"
       gradientTransform="translate(-100.78047,962.36219)"
       gradientUnits="userSpaceOnUse"
       id="linearGradient3049"
       xlink:href="#linearGradient3257"
       inkscape:collect="always" />
    <linearGradient
       x1="27"
       y1="48"
       x2="69"
       y2="48"
       id="linearGradient3702"
       xlink:href="#linearGradient4081"
       gradientUnits="userSpaceOnUse"
       gradientTransform="matrix(0,-1,1,0,-4.1799554e-7,96)" />
    <linearGradient
       id="linearGradient4081">
      <stop
         id="stop4083"
         style="stop-color:#dcdcdc;stop-opacity:1"
         offset="0" />
      <stop
         id="stop4085"
         style="stop-color:#f5f5f5;stop-opacity:1"
         offset="1" />
    </linearGradient>
  </defs>
  <sodipodi:namedview
     id="base"
     pagecolor="#ffffff"
     bordercolor="#666666"
     borderopacity="1.0"
     inkscape:pageopacity="0.0"
     inkscape:pageshadow="2"
     inkscape:zoom="3.959798"
     inkscape:cx="19.411956"
     inkscape:cy="62.999099"
     inkscape:document-units="px"
     inkscape:current-layer="layer4"
     showgrid="false"
     inkscape:window-width="1280"
     inkscape:window-height="750"
     inkscape:window-x="0"
     inkscape:window-y="22"
     inkscape:window-maximized="1"
     showguides="true"
     inkscape:guide-bbox="true">
    <sodipodi:guide
       orientation="0,1"
       position="-24.748737,0"
       id="guide11064" />
    <sodipodi:guide
       orientation="0,1"
       position="-23.233509,96"
       id="guide11066" />
    <sodipodi:guide
       orientation="1,0"
       position="0,54.800776"
       id="guide11068" />
    <sodipodi:guide
       orientation="1,0"
       position="96,51.012704"
       id="guide11070" />
    <sodipodi:guide
       orientation="0,1"
       position="-18.94036,48"
       id="guide11072" />
    <sodipodi:guide
       orientation="1,0"
       position="48,79.296975"
       id="guide11074" />
    <sodipodi:guide
       orientation="1,0"
       position="2,75.508903"
       id="guide11076" />
    <sodipodi:guide
       orientation="0,1"
       position="-77.27667,2"
       id="guide11078" />
    <sodipodi:guide
       orientation="1,0"
       position="94,77.781746"
       id="guide11080" />
    <sodipodi:guide
       orientation="0,1"
       position="-65.912454,94"
       id="guide11082" />
  </sodipodi:namedview>
  <metadata
     id="metadata11042">
    <rdf:RDF>
      <cc:Work
         rdf:about="">
        <dc:format>image/svg+xml</dc:format>
        <dc:type
           rdf:resource="http://purl.org/dc/dcmitype/StillImage" />
        <dc:title></dc:title>
      </cc:Work>
    </rdf:RDF>
  </metadata>
  <g
     inkscape:label="Layer 1"
     inkscape:groupmode="layer"
     id="layer1"
     transform="translate(0,-956.36218)">
    <rect
       x="2"
       y="958.36218"
       width="92"
       height="92"
       style="fill:url(#linearGradient11642);fill-opacity:1.0"
       id="rect3867"
       rx="25"
       ry="25" />
    <g
       transform="translate(-4.1799554e-7,956.36218)"
       id="layer4">
      <path
         d="M 26.999999,60.666667 36.333333,70 48,58.333333 59.666667,70 69,60.666667 57.333333,49 69,37.333333 59.666667,28 48,39.666667 36.333333,28 26.999999,37.333333 38.666667,49 26.999999,60.666667 z"
         inkscape:connector-curvature="0"
         id="path3724"
         style="opacity:0.3;fill:#000000;fill-opacity:1;stroke:none;display:inline" />
      <path
         d="M 26.999999,59.666667 36.333333,69 48,57.333333 59.666667,69 69,59.666667 57.333333,48 69,36.333333 59.666667,27 48,38.666667 36.333333,27 26.999999,36.333333 38.666667,48 26.999999,59.666667 z"
         inkscape:connector-curvature="0"
         id="path2929"
         style="fill:url(#linearGradient3702);fill-opacity:1;stroke:none;display:inline" />
      <path
         d="m 36.34375,27 -9.343751,9.34375 0.5,0.5 L 36.34375,28 48,39.65625 59.65625,28 68.5,36.84375 69,36.34375 59.65625,27 48,38.65625 36.34375,27 z m 1.8125,21.5 -11.156251,11.15625 0.5,0.5 L 38.65625,49 l -0.5,-0.5 z m 19.6875,0 -0.5,0.5 L 68.5,60.15625 69,59.65625 57.84375,48.5 z"
         inkscape:connector-curvature="0"
         id="path3704"
         style="opacity:0.75;fill:#ffffff;fill-opacity:1;stroke:none;display:inline" />
      <path
         d="m 27.499999,35.84375 -0.5,0.5 L 38.15625,47.5 38.65625,47 27.499999,35.84375 z M 68.5,35.84375 57.34375,47 l 0.5,0.5 L 69,36.34375 l -0.5,-0.5 z M 48,56.34375 36.34375,68 l -8.843751,-8.84375 -0.5,0.5 L 36.34375,69 48,57.34375 59.65625,69 69,59.65625 68.5,59.15625 59.65625,68 48,56.34375 z"
         inkscape:connector-curvature="0"
         id="path3714"
         style="opacity:0.15;fill:#000000;fill-opacity:1;stroke:none;display:inline" />
    </g>
    <rect
       ry="25"
       rx="25"
       id="rect3003"
       style="opacity:0.15;fill:#ffffff;fill-opacity:1"
       height="92"
       width="92"
       y="958.36218"
       x="-96"
       clip-path="url(#clipPath3009)"
       transform="translate(98,0)" />
  </g>
</svg>

<?xml version="1.0" encoding="UTF-8" standalone="no"?>
<!-- Created with Inkscape (http://www.inkscape.org/) -->
<svg id="svg11037" xmlns:rdf="http://www.w3.org/1999/02/22-rdf-syntax-ns#" xmlns="http://www.w3.org/2000/svg" height="96" width="96" version="1.1" xmlns:cc="http://creativecommons.org/ns#" xmlns:xlink="http://www.w3.org/1999/xlink" xmlns:dc="http://purl.org/dc/elements/1.1/">
 <defs id="defs11039">
  <linearGradient id="linearGradient11642" y2="1046.1" gradientUnits="userSpaceOnUse" y1="962.62" gradientTransform="matrix(1.15 0 0 1.15 -7.1999 -150.65)" x2="48" x1="48">
   <stop id="stop3259" style="stop-color:#a50000" offset="0"/>
   <stop id="stop3261" style="stop-color:#e73800" offset="1"/>
  </linearGradient>
  <clipPath id="clipPath3009" clipPathUnits="userSpaceOnUse">
   <path id="path3011" style="opacity:.15;fill:#fff" d="m-2 956.36h-96v33.562l96 25.687v-59.25z"/>
  </clipPath>
  <linearGradient id="linearGradient3702" y2="48" gradientUnits="userSpaceOnUse" x2="69" gradientTransform="matrix(0 -1 1 0 -4.18e-7 96)" y1="48" x1="27">
   <stop id="stop4083" style="stop-color:#dcdcdc" offset="0"/>
   <stop id="stop4085" style="stop-color:#f5f5f5" offset="1"/>
  </linearGradient>
 </defs>
 <metadata id="metadata11042">
  <rdf:RDF>
   <cc:Work rdf:about="">
    <dc:format>image/svg+xml</dc:format>
    <dc:type rdf:resource="http://purl.org/dc/dcmitype/StillImage"/>
    <dc:title/>
   </cc:Work>
  </rdf:RDF>
 </metadata>
 <g id="layer1" transform="translate(0 -956.36)">
  <rect id="rect3867" style="fill:url(#linearGradient11642)" rx="25" ry="25" height="92" width="92" y="958.36" x="2"/>
  <g id="layer4" transform="translate(-4.18e-7 956.36)">
   <path id="path3724" style="opacity:.3" d="m27 60.667 9.333 9.333 11.667-11.667 11.667 11.667 9.333-9.333-11.667-11.667 11.667-11.667-9.333-9.333-11.667 11.667-11.667-11.667-9.333 9.333 11.667 11.667-11.667 11.667z"/>
   <path id="path2929" style="fill:url(#linearGradient3702)" d="m27 59.667 9.333 9.333 11.667-11.667 11.667 11.667 9.333-9.333-11.667-11.667 11.667-11.667-9.333-9.333-11.667 11.667-11.667-11.667-9.333 9.333 11.667 11.667-11.667 11.667z"/>
   <path id="path3704" style="opacity:.75;fill:#fff" d="m36.344 27-9.3438 9.3438 0.5 0.5l8.844-8.844 11.656 11.656 11.656-11.656 8.844 8.844 0.5-0.5-9.344-9.344-11.656 11.656-11.656-11.656zm1.8125 21.5-11.156 11.156 0.5 0.5l11.156-11.156-0.5-0.5zm19.688 0-0.5 0.5l11.156 11.156 0.5-0.5-11.156-11.156z"/>
   <path id="path3714" style="opacity:.15" d="m27.5 35.844-0.5 0.5l11.156 11.156 0.5-0.5-11.156-11.156zm41 0-11.156 11.156l0.5 0.5 11.156-11.156-0.5-0.5zm-20.5 20.5-11.656 11.656l-8.8438-8.8438-0.5 0.5 9.344 9.344 11.656-11.656 11.656 11.656 9.344-9.344-0.5-0.5-8.844 8.844-11.656-11.656z"/>
  </g>
  <rect id="rect3003" style="opacity:.15;fill:#fff" transform="translate(98)" clip-path="url(#clipPath3009)" rx="25" ry="25" height="92" width="92" y="958.36" x="-96"/>
 </g>
</svg>
